src/assets/svg/color-circle-logo.svg

<svg width="44" height="44" viewBox="0 0 44 44" fill="none" xmlns="http://www.w3.org/2000/svg">
<path d="M2.78003 21.5C3.04003 11.27 11.32 3.01002 21.55 2.77002V0.77002C10.21 1.01002 1.04003 10.16 0.780029 21.5H2.78003Z" fill="#FFD037"/>
<path d="M22.55 2.78003C32.74 3.07003 40.9601 11.3 41.2201 21.5H43.2201C42.9601 10.2 33.84 1.07003 22.55 0.780029V2.78003Z" fill="#94D532"/>
<path d="M41.2201 22.5C40.9601 32.7 32.74 40.93 22.55 41.22V43.22C33.84 42.93 42.9601 33.8 43.2201 22.5H41.2201Z" fill="#E0321A"/>
<path d="M21.55 41.23C11.31 40.99 3.04003 32.73 2.78003 22.5H0.780029C1.05003 33.83 10.21 42.99 21.55 43.23V41.23Z" fill="#1471C0"/>
</svg>

<svg width="44" height="44" viewBox="0 0 44 44" fill="none" xmlns="http://www.w3.org/2000/svg">
  <path d="M2.78 21.5c.26-10.23 8.54-18.49 18.77-18.73v-2C10.21 1.01 1.04 10.16.78 21.5h2z" fill="#FFD037"/>
  <path d="M22.55 2.78c10.19.29 18.41 8.52 18.67 18.72h2C42.96 10.2 33.84 1.07 22.55.78v2z" fill="#94D532"/>
  <path d="M41.22 22.5c-.26 10.2-8.48 18.43-18.67 18.72v2c11.29-.29 20.41-9.42 20.67-20.72h-2z" fill="#E0321A"/>
  <path d="M21.55 41.23c-10.24-.24-18.51-8.5-18.77-18.73h-2c.27 11.33 9.43 20.49 20.77 20.73v-2z" fill="#1471C0"/>
</svg>
